configs/network-icons/open-campus.svg

<svg width="30" height="30" viewBox="0 0 30 30" fill="none" xmlns="http://www.w3.org/2000/svg">
<g clip-path="url(#clip0_11473_24158)">
<path d="M14.8135 0.00028838C11.8549 0.0371519 8.97326 0.948198 6.53114 2.61876C4.08902 4.28932 2.19553 6.64482 1.08882 9.38889C-0.0178932 12.133 -0.28835 15.143 0.311458 18.0404C0.911266 20.9378 2.35451 23.5931 4.4597 25.6722C6.5649 27.7514 9.23796 29.1616 12.1426 29.7253C15.0473 30.289 18.0538 29.981 20.7839 28.8402C23.5139 27.6995 25.8456 25.7768 27.4857 23.314C29.1257 20.8513 30.0008 17.9586 30.0008 14.9997C29.9757 10.9968 28.3615 7.16772 25.5134 4.35483C22.6653 1.54193 18.8165 -0.024439 14.8135 0.00028838Z" fill="#00EDBE"/>
<path d="M20.8154 9.4531C20.7748 8.70306 20.9577 7.95784 21.3411 7.3119H9.09851C8.98879 7.3115 8.88007 7.33272 8.77855 7.37435C8.67703 7.41597 8.5847 7.47718 8.50684 7.55448C8.42898 7.63179 8.36711 7.72367 8.32476 7.82489C8.28241 7.92611 8.2604 8.03467 8.26001 8.14439V10.7613C8.2604 10.871 8.28241 10.9796 8.32476 11.0808C8.36711 11.182 8.42898 11.2739 8.50684 11.3512C8.5847 11.4285 8.67703 11.4897 8.77855 11.5314C8.88007 11.573 8.98879 11.5942 9.09851 11.5938H21.3411C20.9577 10.9479 20.7748 10.2026 20.8154 9.4526" fill="#141BEB"/>
<path d="M6.35214 15.0417C6.39208 15.7918 6.20843 16.5368 5.82446 17.1824H18.067C18.1768 17.1828 18.2855 17.1616 18.387 17.12C18.4885 17.0784 18.5808 17.0171 18.6587 16.9398C18.7366 16.8625 18.7984 16.7706 18.8408 16.6694C18.8831 16.5682 18.9051 16.4596 18.9055 16.3499V13.733C18.9051 13.6233 18.8831 13.5147 18.8408 13.4135C18.7984 13.3123 18.7366 13.2204 18.6587 13.1431C18.5808 13.0658 18.4885 13.0046 18.387 12.963C18.2855 12.9213 18.1768 12.9001 18.067 12.9005H5.82446C6.20783 13.5465 6.39079 14.2917 6.35015 15.0417" fill="#141BEB"/>
<path d="M20.8154 20.6299C20.7748 19.8798 20.9577 19.1346 21.3411 18.4887H9.09851C8.98879 18.4883 8.88007 18.5095 8.77855 18.5511C8.67703 18.5927 8.5847 18.6539 8.50684 18.7312C8.42898 18.8085 8.36711 18.9004 8.32476 19.0016C8.28241 19.1029 8.2604 19.2114 8.26001 19.3211V21.9381C8.2604 22.0478 8.28241 22.1563 8.32476 22.2576C8.36711 22.3588 8.42898 22.4507 8.50684 22.528C8.5847 22.6053 8.67703 22.6665 8.77855 22.7081C8.88007 22.7497 8.98879 22.771 9.09851 22.7706H21.3411C20.9577 22.1246 20.7748 21.3794 20.8154 20.6294" fill="#141BEB"/>
</g>
<defs>
<clipPath id="clip0_11473_24158">
<rect width="30" height="30" fill="white"/>
</clipPath>
</defs>
</svg>

<svg xmlns="http://www.w3.org/2000/svg" fill="none" viewBox="0 0 30 30">
  <g clip-path="url(#open-campus_svg__a)">
    <path fill="#00EDBE" d="M14.813 0a15 15 0 1 0 15.188 15A15.095 15.095 0 0 0 14.813 0Z"/>
    <path fill="#141BEB" d="M20.815 9.453c-.04-.75.143-1.495.526-2.141H9.1a.835.835 0 0 0-.839.832v2.617a.835.835 0 0 0 .839.833h12.24a3.793 3.793 0 0 1-.526-2.141M6.352 15.042a3.79 3.79 0 0 1-.528 2.14h12.243a.836.836 0 0 0 .838-.832v-2.617a.837.837 0 0 0-.838-.833H5.824c.384.646.567 1.392.526 2.142m14.465 5.588c-.04-.75.143-1.495.526-2.141H9.1a.836.836 0 0 0-.839.832v2.617a.836.836 0 0 0 .839.833h12.24a3.793 3.793 0 0 1-.526-2.142"/>
  </g>
  <defs>
    <clipPath id="open-campus_svg__a">
      <path fill="#fff" d="M0 0h30v30H0z"/>
    </clipPath>
  </defs>
</svg>
